!!!COM: Mozart, Wolfgang Amadeus
!!!OPR: Divertimento in F Major
!!!OTL:
!!!OMV: 2
!!!SCT: K 138
!!!SCA: Chronologisch-thematisches Verzeichnis sämtlicher Tonwerke Wolfgang Amade Mozarts (L. von Köchel; 1862, 2/1905, 3/1937, 1947)
!!!YOR: Breitkopf & Härtel Edition
!!!EED: Frances Bennion
!!!ENC: Frances Bennion
!!!CDT: 1756/1/27/-1791/12/5/
!!!OCY: Österreich
!!!YEC: Copyright (c) 1994, 2000 Center for Computer Assisted Research in the Humanities
!!!YEM: Rights to all derivative editions reserved.
!!!YEM: Refer to licensing agreement for further details.
!!!YEN: United States of America
**kern	**kern	**kern	**kern
*k[]	*k[]	*k[]	*k[]
*C:	*C:	*C:	*C:
*clefG	*clefG	*clefF	*clefC
*M3/4	*M3/4	*M3/4	*M3/4
*tb32	*tb32	*tb32	*tb32
=1	=1	=1	=1
2gg	16e	2.G	4C
.	16f	.	.
.	16g	.	.
.	16e	.	.
.	16c	.	4E
.	16G	.	.
.	16e	.	.
.	16c	.	.
8.ff	16B	.	4G
.	16c	.	.
.	16d	.	.
32ee	16B	.	.
32ff	.	.	.
=2	=2	=2	=2
2ee	16c	2A	4A
.	16B	.	.
.	16c	.	.
.	16d	.	.
.	16c	.	4AA
.	16d	.	.
.	16e	.	.
.	16f	.	.
8r	16g	8e	4E
.	16a	.	.
16cc	16b-	16g	.
16cc#	16g	16B-	.
=3	=3	=3	=3
8dd	16f	4A	4F
.	16a	.	.
16ff	16f	.	.
16aa	16d	.	.
4cc	16e	4G	4G
.	16g	.	.
.	16e	.	.
.	16c	.	.
8dd	16B	4G	4GG
.	16B	.	.
16ee	16c	.	.
16ff	16d	.	.
=4	=4	=4	=4
8ff	8d	4G	4C
16ee	16c	.	.
16ff	16d	.	.
4ee	16c	8r	8r
.	16cc	.	.
.	16b	4e 4G	8C
.	16cc	.	.
4r	16dd	.	8C
.	16cc	.	.
.	16b	8e 8G	8BB
.	16cc	.	.
=5	=5	=5	=5
8r	16r	4c	4AA
.	16c	.	.
4ff	16B	.	.
.	16c	.	.
.	16d	4r	8r
.	16c	.	.
4ff	16B	.	8AA
.	16c	.	.
.	16d	4A-	8AA-
.	16c	.	.
8ff	16B	.	8AA-
.	16c	.	.
=6	=6	=6	=6
8r	16B	4G	4GG
.	16g	.	.
4ddd 4ff 4g	16d	.	.
.	16g	.	.
.	16B	4G	4GG
.	16g	.	.
8bb	16d	.	.
.	16g	.	.
8gg	16B	4G	4GG
.	16G	.	.
8ff	16d	.	.
.	16B	.	.
=7	=7	=7	=7
16ee	16c	4G	4C
16gg	16e	.	.
16ccc	16g	.	.
16gg	16e	.	.
16gg	16e	4G	4BB
16ff	16d	.	.
16aa	16f	.	.
16ff	16d	.	.
16ff	16d	4G	4C
16ee	16c	.	.
16gg	16e	.	.
16ee	16c	.	.
=8	=8	=8	=8
8.gg	8.e	4G	8r
.	.	.	8G
16ee	16c	.	.
4dd	4B	16r	16GG
.	.	16b	16G
.	.	16a	16F#
.	.	16g	16E
4r	4r	16f#	16D
.	.	16e	16C
.	.	16d	16BB
.	.	16c	16AA
=9	=9	=9	=9
8.dd	8.b	4B	4GG
16bb	16d	.	.
[2bb	2d	16r	16r
.	.	16b	16G
.	.	16a	16F#
.	.	16b	16G
.	.	16cc	16A
.	.	16b	16G
.	.	16a	16F#
.	.	16b	16G
=10	=10	=10	=10
8.bb]	8.c	4g	4E
16cc	16b	.	.
[2cc	2b	16r	16r
.	.	16g	16E
.	.	16f#	16D
.	.	16g	16E
.	.	16a	16F#
.	.	16g	16E
.	.	16f#	16D
.	.	16g	16E
=11	=11	=11	=11
8.cc]	8.a	4a	4F#
16aa	16c	.	.
[2aa	2c	16r	16r
.	.	16a	16F#
.	.	16cc	16A
.	.	16b	16G
.	.	16a	16F#
.	.	16b	16G
.	.	16a	16F#
.	.	16g	16E
=12	=12	=12	=12
8.aa]	8.B	4f#	4D#
16b	16a	.	.
[2b	2a	16r	16r
.	.	16f#	16D#
.	.	16f#	16D#
.	.	16f#	16D#
.	.	16f#	16D#
.	.	16d#	16BB
.	.	16e	16C#
.	.	16f#	16D#
=13	=13	=13	=13
2.b_	8g	8e	8E
.	8g	8e	8E
.	8a	8d#	8F#
.	8a	8d#	8F#
.	8f#	8A	8D#
.	8f#	8A	8D#
=14	=14	=14	=14
4b]	8e	8G	8E
.	8g	8e	8E
4ee	8a	8c	8F#
.	8cc	8a	8F#
16dd	16b	4d	8G
16ee	16cc	.	.
16ff#	16a	.	8G
16gg	16b	.	.
=15	=15	=15	=15
8ee	8cc	8r	8C
16dd	16b	8e	8C
16cc	16a	.	.
4b	4g	8d	8D
.	.	8d	8D
4a	4f#	8c	8D
.	.	8c	8D
=16	=16	=16	=16
4g	16g	16B	4GG
.	16a	16c	.
.	16b	16d	.
.	16a	16c	.
2r	16g	16B	4G
.	16a	16c	.
.	16b	16d	.
.	16a	16c	.
.	16g	4d	4BB
.	16f	.	.
.	16e	.	.
.	16d	.	.
=17	=17	=17	=17
4.gg	16e	16c	4C
.	16ee	16c	.
.	16gg	16e	.
.	16ff#	16d	.
.	16ee	16c	4C
.	16dd	16B	.
16aa	16cc	16A	.
16bb	16b	16G	.
8ccc	8a	16F#	4D
.	.	8d	.
16bb	16g	.	.
16aa	16f#	16c	.
=18	=18	=18	=18
4gg	16g	4B	4GG
.	16f#	.	.
.	16g	.	.
.	16d	.	.
[2g	16B	16d	4G
.	16A	16c	.
.	16B	16d	.
.	16G	16B	.
.	16f	16d	4BB
.	16e	16c	.
.	16f	16d	.
.	16d	16B	.
=19	=19	=19	=19
4.g]	16e	16c	4C
.	16f#	16d	.
.	16g	16e	.
.	16f#	16d	.
.	16e	16c	4C
.	16d	16B	.
16a	16c	16A	.
16b	16B	16G	.
8cc	16A	16F#	4D
.	16a	8d	.
16b	16g	.	.
16a	16f#	16c	.
=20	=20	=20	=20
8g	4g	4B	4E
4gg	.	.	.
.	4e	4G	4C
8ee	.	.	.
8cc	8r	8r	8r
8a	8f#	8c	8D
=21	=21	=21	=21
4a	4f#	4c	4.G
8g	8g	8B	.
4.r	4.r	4.r	8D
.	.	.	8BB
.	.	.	8GG
=22	=22	=22	=22
2.g	16d	16B	4.F
.	8d	8B	.
.	8d	8B	.
.	8d	8B	.
.	.	.	8D
.	8d	8B	.
.	.	.	8BB
.	8d	8B	.
.	.	.	8FF
.	[16d	[16B	.
=23	=23	=23	=23
2.g#	16d]	16B]	4.E
.	8d	8B	.
.	8d	8B	.
.	8d	8B	.
.	.	.	8BB
.	8d	8B	.
.	.	.	8GG#
.	8d	8B	.
.	.	.	8EE
.	16d	[16B	.
=24	=24	=24	=24
2.ff	16g#	16B]	4.D
.	8g#	8B	.
.	8g#	8B	.
.	8g#	8B	.
.	.	.	8BB
.	8g#	8B	.
.	.	.	8GG#
.	8g#	8B	.
.	.	.	8DD
.	16g#	16B	.
=25	=25	=25	=25
8ee	16a	4c	4CC
.	16e	.	.
4aa	16d#	.	.
.	16e	.	.
.	16f	4c	4C
.	16e	.	.
4aa	16d#	.	.
.	16e	.	.
.	16d	8A	4C
.	16c	.	.
8aa	16B	8E	.
.	16A	.	.
=26	=26	=26	=26
8ff	8.A	8D	8D
16ee	.	8F	8D
16dd	16B	.	.
4cc	16A	8E	8E
.	16c	.	.
.	16e	4e	8E
.	16a	.	.
4b	4g#	.	8E
.	.	8d	8E
=27	=27	=27	=27
[4a	8a	4c	8F
.	8a	.	8F
16a]	8g	4r	8E
32b	.	.	.
32cc	.	.	.
32dd	8f	.	8D
32ee	.	.	.
32ff	.	.	.
32gg#	.	.	.
8aa	8e	8c	8C
32a	32e	[8A	8C
32cc	32a	.	.
32ee	32cc	.	.
32aa	32ee	.	.
=28	=28	=28	=28
8ff	8dd	8A]	8D
16ee	16cc	8f	8D
16dd	16b	.	.
4cc	16a	4e	8E
.	16e	.	.
.	16c	.	8E
.	16A	.	.
8.b-	16B-	4c 4C	8EE
.	16e	.	.
.	16g	.	8EE
32a	16b-	.	.
32b-	.	.	.
=29	=29	=29	=29
4a	16c	4F	8FF
.	16f	.	.
.	16a	.	8F
.	16c	.	.
4ff	16B	2G	8D
.	16d	.	.
.	16g	.	8D
.	16B	.	.
4ee	16G	.	8C
.	16c	.	.
.	16e	.	8C
.	16g	.	.
=30	=30	=30	=30
16r	16c	4F	8F
16aa	16cc	.	.
16aa	16cc	.	8F
16bb	16dd	.	.
16bb	8g	8r	8E
16ccc	.	.	.
16ccc	16a	4c	8E
16bb	16g	.	.
16aa	16f	.	8F
16gg	16e	.	.
16ff	16d	8A	8F#
16ee	16c	.	.
=31	=31	=31	=31
8.ee	8.c	4G	4G
32dd	32B	.	.
32ee	32c	.	.
4dd	4B	16r	16r
.	.	16e	16c
.	.	16d	16B
.	.	16f	16A
4r	4r	16e	16G
.	.	16a	16F
.	.	16g	16E
.	.	16b	16D
=32	=32	=32	=32
8.ee	8.g	4cc	8C
.	.	.	8c
16ccc	16e	.	.
[2ccc	2e	8r	16r
.	.	.	16c
.	.	8g	16B
.	.	.	16c
.	.	8g	16d
.	.	.	16c
.	.	8g	16B
.	.	.	16c
=33	=33	=33	=33
8.ccc]	8.e	4f	4A
16ff	16ee	.	.
2ff	2ee	16r	16r
.	.	16cc	16A
.	.	16b	16G#
.	.	16cc	16A
.	.	16dd	16B
.	.	16cc	16A
.	.	16b	16G#
.	.	16cc	16A
=34	=34	=34	=34
8.ff	8.dd	4dd	4B
16ddd	16f	.	.
[2ddd	2f	16r	16r
.	.	16d	16B
.	.	16d	16B
.	.	16d	16B
.	.	16d	16B
.	.	16f	16d
.	.	16d	16B
.	.	16c	16A
=35	=35	=35	=35
8.ddd]	8.e	4B	4G#
16ee	16dd	.	.
[2ee	2dd	16r	16r
.	.	16b	16G#
.	.	16a	16F#
.	.	16b	16G#
.	.	16cc	16A
.	.	16b	16G#
.	.	16a	16F#
.	.	16b	16G#
=36	=36	=36	=36
8.ee]	8.cc	4cc	4A
16ccc	16e	.	.
[2ccc	2e	16r	16r
.	.	16c	16A
.	.	16c	16A
.	.	16c	16A
.	.	16c	16A
.	.	16e	16c
.	.	16c	16A
.	.	16B	16G
=37	=37	=37	=37
2.ccc]	8d	8A	8F#
.	8a	4d	8F#
.	8g	.	8G
.	8g	4d	8G
.	8f#	.	8A
.	8f#	8d	8A
=38	=38	=38	=38
4bb	8g	8d	8G
.	8g	8d	8G
4aa	8d	8B	8F
.	8d	8B	8F
16gg	8e	[4c	8E
16aa	.	.	.
16bb	8g	.	8E
16ccc	.	.	.
=39	=39	=39	=39
8aa	8f	8c]	8F
16gg	16e	8A	8F
16ff	16d	.	.
4ee	4c	8G	8G
.	.	8G	8G
4dd	4B	8f	8GG
.	.	8f	8GG
=40	=40	=40	=40
4cc	16c	8e	4C
.	16e	.	.
.	16g	4E	.
.	16f	.	.
2r	16e	.	4CC
.	16f	.	.
.	16e	4G	.
.	16d	.	.
.	16c	.	4E
.	16d	.	.
.	16c	8G	.
.	16B-	.	.
=41	=41	=41	=41
4.cc	16A	16F	4F
.	16a	16f	.
.	16cc	16a	.
.	16b	16g	.
.	16a	16f	4F
.	16g	16e	.
16dd	16f	16d	.
16ee	16e	16c	.
8ff	8d	16B	4G
.	.	8g	.
16ee	16c	.	.
16dd	16B	16f	.
=42	=42	=42	=42
4cc	16c	8e	4C
.	16e	.	.
.	16g	4E	.
.	16f	.	.
2r	16e	.	4CC
.	16f	.	.
.	16e	4G	.
.	16d	.	.
.	16c	.	4E
.	16d	.	.
.	16c	8G	.
.	16B-	.	.
=43	=43	=43	=43
4.cc	16A	16F	4F
.	16a	16f	.
.	16cc	16a	.
.	16b	16g	.
.	16a	16f	4F
.	16g	16e	.
16dd	16f	16d	.
16ee	16e	16c	.
8ff	8d	16B	4G
.	.	8g	.
16ee	16c	.	.
16dd	16B	16f	.
=44	=44	=44	=44
8cc	4c	4e	4A
4ccc	.	.	.
.	4c	4A	4F
8aa	.	.	.
8ff	8r	8r	8r
8dd	8f	8B	8G
=45a	=45a	=45a	=45a
4dd	4f	4B	4.c
8cc	8e	8c	.
4.r	4.r	4.r	8G
.	.	.	8E
.	.	.	8C
=45b	=45b	=45b	=45b
2dd	2f	2B	2C
8cc	8e	8c	8CC
8r	8r	8r	8r
==	==	==	==
*-	*-	*-	*-
!!!RWG1: This file contains only pitch and duration data.
!!!RWG2: Transposing instruments are not transposed.
!!!RWG3: Spines may have incompatible meters.
!!!RWG4: Durations of rests and tied notes may be interpreted.
!!!RWG: Key is interpreted using the Humdrum key tool.
!!!AFT: stage1
!!!END: 1997/04/15
!!format changes:
!!content changes:
!!public access: complete
!!!KEY: 170841532
!!!EMD: Converted from MuseData to Humdrum Dec 16, 2000, by Andreas Kornstaedt using muse2kern.
